img/SVG/Icon feather-moon.svg

<svg xmlns="http://www.w3.org/2000/svg" width="21.978" height="21.978" viewBox="0 0 21.978 21.978">
  <g id="Icon_feather-moon" data-name="Icon feather-moon" transform="translate(-3.557 -3.5)" fill="rgba(255,255,255,0.7)" stroke-linecap="round" stroke-linejoin="round">
    <path d="M24.535,15.389A10.01,10.01,0,1,1,13.646,4.5,7.786,7.786,0,0,0,24.535,15.389Z" stroke="none"/>
    <path d="M 14.57206535339355 24.47786903381348 C 19.72299957275391 24.47786903381348 24.05756950378418 20.55197525024414 24.53471183776855 15.38879776000977 C 23.15102767944336 16.41157722473145 21.52656555175781 16.9135913848877 19.90924453735352 16.9135913848877 C 17.90412139892578 16.9135913848877 15.91015529632568 16.14157867431641 14.40174293518066 14.63313770294189 C 11.6766529083252 11.90799808502197 11.35533237457275 7.599197864532471 13.64609241485596 4.499998092651367 C 8.378842353820801 4.986768245697021 4.399512767791748 9.487797737121582 4.561972618103027 14.7750883102417 C 4.724432468414307 20.0623779296875 8.972582817077637 24.31060791015625 14.2597827911377 24.47306823730469 C 14.36433887481689 24.47628021240234 14.46814823150635 24.47786903381348 14.57206535339355 24.47786903381348 M 14.57206249237061 25.47786903381348 C 14.45841217041016 25.47786903381348 14.34302234649658 25.47609901428223 14.22909259796143 25.47259902954102 C 11.41648292541504 25.38617897033691 8.771722793579102 24.24275779724121 6.781982421875 22.25298881530762 C 4.792252540588379 20.26321792602539 3.648862600326538 17.61842727661133 3.562442541122437 14.80579853057861 C 3.476022481918335 11.99317836761475 4.454882621765137 9.283167839050293 6.318702697753906 7.17499828338623 C 8.182522773742676 5.066818237304688 10.7520923614502 3.763188123703003 13.55407238006592 3.504238128662109 C 13.58495044708252 3.501384496688843 13.61574935913086 3.499978542327881 13.6463565826416 3.499978542327881 C 14.00478172302246 3.499978542327881 14.33896732330322 3.692653179168701 14.51726245880127 4.009017944335938 C 14.71079254150391 4.352397918701172 14.68455219268799 4.777428150177002 14.45026206970215 5.094398021697998 C 12.4375524520874 7.817428112030029 12.71453285217285 11.53166770935059 15.10885238647461 13.92603778839111 C 16.39052200317383 15.20772838592529 18.09533309936523 15.91358852386475 19.90924263000488 15.91358852386475 C 21.37019348144531 15.91358852386475 22.76411247253418 15.45404815673828 23.9403018951416 14.58463764190674 C 24.11602592468262 14.45474624633789 24.32499694824219 14.38879203796387 24.53481864929199 14.38879203796387 C 24.7034740447998 14.38879203796387 24.87266540527344 14.43138217926025 25.02568244934082 14.51761817932129 C 25.36907196044922 14.71114826202393 25.56674194335938 15.08832836151123 25.53047180175781 15.4808177947998 C 25.27700233459473 18.22356796264648 24.01582336425781 20.75507736206055 21.97923278808594 22.60901832580566 C 19.94695281982422 24.45902824401855 17.31637191772461 25.47786903381348 14.57206249237061 25.47786903381348 Z" stroke="none" fill="rgba(255,255,255,0.7)"/>
  </g>
</svg>

<?xml version="1.0" encoding="utf-8"?>
<!-- Generator: Adobe Illustrator 25.1.0, SVG Export Plug-In . SVG Version: 6.00 Build 0)  -->
<svg version="1.1" id="Layer_1" xmlns="http://www.w3.org/2000/svg" xmlns:xlink="http://www.w3.org/1999/xlink" x="0px" y="0px"
	 viewBox="0 0 22 22" style="enable-background:new 0 0 22 22;" xml:space="preserve">
<g id="Icon_feather-moon" transform="translate(-3.557 -3.5)">
	<path d="M25.5,15.5c-0.2,2.7-1.5,5.3-3.5,7.1c-2,1.9-4.7,2.9-7.4,2.9h-0.4c-2.8-0.1-5.5-1.2-7.5-3.2c-2-2-3.1-4.6-3.2-7.5
		C3.5,12,4.5,9.3,6.3,7.2c1.9-2.1,4.4-3.4,7.2-3.7c0,0,0.1,0,0.1,0c0.4,0,0.7,0.2,0.9,0.5c0.2,0.3,0.2,0.8-0.1,1.1
		c-2,2.7-1.7,6.4,0.7,8.8c1.3,1.3,3,2,4.8,2c1.5,0,2.9-0.5,4-1.3c0.2-0.1,0.4-0.2,0.6-0.2c0.2,0,0.3,0,0.5,0.1
		C25.4,14.7,25.6,15.1,25.5,15.5z"/>
</g>
</svg>
